fs/projection_screen_dismiss_20_filled.svg

<svg viewBox="0 0 20 20" fill="none" xmlns="http://www.w3.org/2000/svg" height="1em" width="1em">
  <path d="M19 5.5C19 7.98528 16.9853 10 14.5 10C12.0147 10 10 7.98528 10 5.5C10 3.01472 12.0147 1 14.5 1C16.9853 1 19 3.01472 19 5.5ZM16.3536 4.35355C16.5488 4.15829 16.5488 3.84171 16.3536 3.64645C16.1583 3.45118 15.8417 3.45118 15.6464 3.64645L14.5 4.79289L13.3536 3.64645C13.1583 3.45118 12.8417 3.45118 12.6464 3.64645C12.4512 3.84171 12.4512 4.15829 12.6464 4.35355L13.7929 5.5L12.6464 6.64645C12.4512 6.84171 12.4512 7.15829 12.6464 7.35355C12.8417 7.54882 13.1583 7.54882 13.3536 7.35355L14.5 6.20711L15.6464 7.35355C15.8417 7.54882 16.1583 7.54882 16.3536 7.35355C16.5488 7.15829 16.5488 6.84171 16.3536 6.64645L15.2071 5.5L16.3536 4.35355ZM14.5 11C15.4002 11 16.2499 10.7837 17 10.4003V11C17 12.6569 15.6569 14 14 14H10.5V16H12.5C12.7761 16 13 16.2239 13 16.5C13 16.7761 12.7761 17 12.5 17H7.5C7.22386 17 7 16.7761 7 16.5C7 16.2239 7.22386 16 7.5 16H9.5V14H6C4.34315 14 3 12.6569 3 11V5C2.44772 5 2 4.55228 2 4C2 3.44772 2.44772 3 3 3H9.59971C9.21628 3.75007 9 4.59978 9 5.5C9 8.53757 11.4624 11 14.5 11Z" fill="#212121"/>
</svg>

<svg viewBox="0 0 20 20" fill="none" xmlns="http://www.w3.org/2000/svg" height="1em" width="1em">
  <path d="M19 5.5a4.5 4.5 0 1 1-9 0 4.5 4.5 0 0 1 9 0Zm-2.646-1.146a.5.5 0 0 0-.708-.708L14.5 4.793l-1.146-1.147a.5.5 0 0 0-.708.708L13.793 5.5l-1.147 1.146a.5.5 0 0 0 .708.708L14.5 6.207l1.146 1.147a.5.5 0 0 0 .708-.708L15.207 5.5l1.147-1.146ZM14.5 11c.9 0 1.75-.216 2.5-.6v.6a3 3 0 0 1-3 3h-3.5v2h2a.5.5 0 0 1 0 1h-5a.5.5 0 0 1 0-1h2v-2H6a3 3 0 0 1-3-3V5a1 1 0 0 1 0-2h6.6a5.5 5.5 0 0 0 4.9 8Z" fill="#212121"/>
</svg>
